assets/images/bitrix.svg

<svg width="24" height="24" viewBox="0 0 24 24" fill="none" xmlns="http://www.w3.org/2000/svg">
<path d="M9.68388 23.8617C7.58467 23.4276 5.62586 22.4594 4.08811 21.0957C0.140317 17.5948 -1.07976 12.0951 1.00577 7.20164C1.51792 5.99992 2.35054 4.78036 3.38218 3.72083L4.29169 2.78674L4.35584 8.25396C4.41724 13.4871 4.43108 13.7507 4.679 14.4101C5.17498 15.7294 5.7067 16.5694 6.62206 17.4796C8.98659 19.8308 12.4549 20.4177 15.4033 18.9653C18.1745 17.6002 19.9216 14.6318 19.7186 11.6336C19.5822 9.61958 18.9039 8.14275 17.4394 6.67131C16.332 5.55867 15.0291 4.8319 13.6106 4.53556C12.1674 4.23405 12.2367 4.18999 12.2367 5.40971V6.46273L13.0279 6.60829C16.092 7.17202 18.1185 10.1763 17.4798 13.2083C17.2759 14.1767 16.8209 15.0318 16.0905 15.8195C14.9805 17.0166 13.4189 17.5887 12.0554 17.5861C9.80071 17.5818 7.91803 16.3025 7.00555 14.4107C7.00555 14.4107 6.76652 13.87 6.6897 13.5358C6.23796 11.5708 6.52671 7.43419 6.52671 7.43419L6.49173 1.38578L6.84933 1.20114C7.04601 1.09959 7.23464 1.0165 7.26851 1.0165C7.30238 1.0165 7.34537 3.79453 7.36405 7.1899C7.36405 7.1899 6.92979 11.6408 7.46643 13.3464C7.54386 13.5925 7.69085 14.0134 7.69085 14.0134C8.16127 14.9704 8.91524 15.8121 9.89488 16.2755C10.6385 16.6272 11.0129 16.7863 12.1131 16.7863C12.8319 16.7863 13.4687 16.5598 14.2014 16.2233C15.0652 15.8266 16.056 14.775 16.4222 13.8148C17.431 11.1692 16.0263 8.32298 13.3201 7.52933C12.2141 7.20497 12.2367 7.1871 12.2367 8.38791V9.4368L12.7676 9.57858C14.6812 10.0896 15.2651 12.6507 13.7629 13.9667C13.2321 14.4316 12.7539 14.6371 11.9172 14.6371C11.0232 14.6371 10.1651 14.0969 9.72397 13.2682C9.45897 12.7704 9.4366 12.2983 9.4366 12.082C9.4366 10.0845 9.39327 6.49199 9.39327 6.49199L9.35748 0.329575L9.63221 0.261441C9.78332 0.223966 10.3941 0.13124 10.9894 0.0553819C13.0085 -0.201886 15.9956 0.457877 18.0024 1.60434C20.7383 3.16736 22.8085 5.8524 23.6705 8.95588C23.967 10.0234 24 10.3338 24 12.0511C24 13.7607 23.9662 14.0814 23.676 15.1255C22.5037 19.3436 19.5215 22.3589 15.2575 23.6377C14.3601 23.9068 13.9397 23.9581 12.3562 23.9919C11.0783 24.0191 10.25 23.9787 9.68388 23.8617Z" fill="#626262"/>
</svg>

<svg width="24" height="24" viewBox="0 0 24 24" fill="none" xmlns="http://www.w3.org/2000/svg"><path d="M9.684 23.862c-2.1-.434-4.058-1.403-5.596-2.766-3.948-3.501-5.168-9-3.082-13.894C1.518 6 2.35 4.78 3.382 3.72l.91-.934.064 5.467c.061 5.233.075 5.497.323 6.156.496 1.32 1.028 2.16 1.943 3.07 2.365 2.35 5.833 2.938 8.781 1.485 2.771-1.365 4.519-4.333 4.316-7.331-.137-2.014-.815-3.491-2.28-4.963-1.107-1.112-2.41-1.84-3.828-2.135-1.444-.302-1.374-.346-1.374.874v1.053l.79.145c3.065.564 5.092 3.568 4.453 6.6-.204.969-.66 1.824-1.39 2.611a5.603 5.603 0 0 1-4.035 1.767 5.562 5.562 0 0 1-5.05-3.175s-.238-.541-.315-.875c-.452-1.965-.163-6.102-.163-6.102l-.035-6.048.357-.185c.197-.101.386-.185.42-.185.033 0 .076 2.779.095 6.174 0 0-.434 4.45.102 6.156.078.246.225.667.225.667.47.957 1.224 1.8 2.204 2.263.744.351 1.118.51 2.218.51.719 0 1.356-.226 2.088-.563.864-.396 1.855-1.448 2.221-2.408 1.009-2.646-.396-5.492-3.102-6.286-1.106-.324-1.083-.342-1.083.859v1.049l.53.142c1.914.51 2.498 3.072.996 4.388-.53.465-1.01.67-1.846.67-.894 0-1.752-.54-2.193-1.369a2.524 2.524 0 0 1-.287-1.186c0-1.998-.044-5.59-.044-5.59L9.357.33l.275-.07c.151-.037.762-.13 1.357-.206 2.02-.257 5.007.403 7.013 1.55 2.736 1.562 4.806 4.247 5.669 7.35.296 1.068.329 1.379.329 3.096 0 1.71-.034 2.03-.324 3.075-1.172 4.218-4.154 7.233-8.418 8.512-.898.269-1.318.32-2.902.354-1.278.027-2.106-.013-2.672-.13Z" fill="#626262"/></svg>
